fs/multiplier_1_8x_20_filled.svg

<svg viewBox="0 0 20 20" fill="none" xmlns="http://www.w3.org/2000/svg" height="1em" width="1em">
  <path d="M4.45735 6.02926C4.77873 6.12166 5.00011 6.41566 5.00011 6.75006V13.25C5.00011 13.6642 4.66433 14 4.25011 14C3.8359 14 3.50011 13.6642 3.50011 13.25V8.80502C3.25857 8.99595 2.97586 9.18923 2.63599 9.39316C2.2808 9.60627 1.8201 9.49109 1.60699 9.13591C1.39388 8.78073 1.50906 8.32004 1.86424 8.10693C2.4449 7.75854 2.76727 7.48576 2.99171 7.23915C3.20783 7.00168 3.35325 6.76933 3.56717 6.42753L3.61464 6.35173C3.79224 6.06839 4.13597 5.93686 4.45735 6.02926ZM13.25 8.25004C13.25 8.82824 13.023 9.32463 12.6636 9.70292C13.1703 10.1437 13.5 10.7668 13.5 11.5C13.5 12.9717 12.1716 14 10.75 14C9.32842 14 8 12.9717 8 11.5C8 10.7668 8.32973 10.1437 8.83643 9.70292C8.477 9.32463 8.25 8.82824 8.25 8.25004C8.25 6.90311 9.48192 6.00006 10.75 6.00006C12.0181 6.00006 13.25 6.90311 13.25 8.25004ZM10.75 7.50005C10.0851 7.50005 9.75 7.94013 9.75 8.25004C9.75 8.55996 10.0851 9.00004 10.75 9.00004C11.4149 9.00004 11.75 8.55996 11.75 8.25004C11.75 7.94013 11.4149 7.50005 10.75 7.50005ZM9.5 11.5C9.5 11.9614 9.96244 12.5 10.75 12.5C11.5376 12.5 12 11.9614 12 11.5C12 11.0387 11.5376 10.5 10.75 10.5C9.96244 10.5 9.5 11.0387 9.5 11.5ZM14.2197 10.2197C14.5126 9.92681 14.9874 9.92681 15.2803 10.2197L16 10.9394L16.7197 10.2197C17.0126 9.92681 17.4874 9.92681 17.7803 10.2197C18.0732 10.5126 18.0732 10.9875 17.7803 11.2804L17.0607 12L17.7803 12.7197C18.0732 13.0126 18.0732 13.4874 17.7803 13.7803C17.4874 14.0732 17.0126 14.0732 16.7197 13.7803L16 13.0607L15.2803 13.7803C14.9874 14.0732 14.5126 14.0732 14.2197 13.7803C13.9268 13.4874 13.9268 13.0126 14.2197 12.7197L14.9393 12L14.2197 11.2804C13.9268 10.9875 13.9268 10.5126 14.2197 10.2197ZM7 13.5C7 13.7761 6.77614 14 6.5 14C6.22386 14 6 13.7761 6 13.5C6 13.2239 6.22386 13 6.5 13C6.77614 13 7 13.2239 7 13.5Z" fill="#212121"/>
</svg>

<svg viewBox="0 0 20 20" fill="none" xmlns="http://www.w3.org/2000/svg" height="1em" width="1em">
  <path d="M4.457 6.03A.75.75 0 0 1 5 6.75v6.5a.75.75 0 0 1-1.5 0V8.805a8.075 8.075 0 0 1-.864.588.75.75 0 0 1-.772-1.286c.58-.348.903-.621 1.128-.868.216-.237.361-.47.575-.811l.048-.076a.75.75 0 0 1 .842-.323Zm8.793 2.22a2.08 2.08 0 0 1-.586 1.453c.506.44.836 1.064.836 1.797 0 1.472-1.328 2.5-2.75 2.5S8 12.972 8 11.5c0-.733.33-1.356.836-1.797A2.08 2.08 0 0 1 8.25 8.25C8.25 6.903 9.482 6 10.75 6s2.5.903 2.5 2.25Zm-2.5-.75c-.665 0-1 .44-1 .75s.335.75 1 .75 1-.44 1-.75-.335-.75-1-.75Zm-1.25 4c0 .461.462 1 1.25 1s1.25-.539 1.25-1c0-.461-.462-1-1.25-1s-1.25.539-1.25 1Zm4.72-1.28a.75.75 0 0 1 1.06 0l.72.72.72-.72a.75.75 0 1 1 1.06 1.06l-.72.72.72.72a.75.75 0 1 1-1.06 1.06l-.72-.72-.72.72a.75.75 0 1 1-1.06-1.06l.72-.72-.72-.72a.75.75 0 0 1 0-1.06ZM7 13.5a.5.5 0 1 1-1 0 .5.5 0 0 1 1 0Z" fill="#212121"/>
</svg>
